!!!OTL: Diana and Sweet William
!!!ONM: 17.
**kern
*clefG2
!Modal -- Conklin/Pearce 
*k[b-]
*d:
*M3/4
*MM110
{(8a
8g)
=1
4f
4d
4d
=2
4c
4c
4c
=3
4f
(8f
8g)
4a
=4
4g
4r}
{4f
=5
4b-
4cc
4dd
=6
(4cc
4a)
8f
8a
=7
(8g
8f)
4d
4c
=8
4.d
8r}
{(8a
8g)
=9
4f
4d
4d
=10
4c
4c
4c
=11
4f
(8f
8g)
4a
=12
4g
4r}
{4f
=13
8b-
8b-
4cc
4dd
=14
4cc
4a
(8f
8a)
=15
(8g
8f)
4d
4c
=16
4d
4r}
==
*-
!!!CNT: Folksongs of Maritime Canada
!!!MRD: 1928///-1932///
!!!OCL: Helen Creighton
!!!YOR: Songs and Ballads from Nova Scotia
!!!PPR: J.M. Dent & Sons, Limited
!!!PPP: Toronto, Canada
!!!PDT: 1932///
!!!reprint: Dover Publications, 1992: ISBN 0-486-21703-5
!!!ENC1: Craig Stuart Sapp (music and bibliographic data)                       
!!!ENC2: Marcus Pearce (phrase markings and key designations)                   
!!!ENC3: Darrell Conklin (phrase markings and key designations)   
!!!END: 2002/04/10/
!!!EEV: 2004/06/05
!!!MPN: Mr. Ben Henneberry
!!!PPG: 34
!!!EFL: 17/152
!!!ARE: Canada; Nova Scotia
!!!verses: 9
!!!VTS: 3626445354
